24x24/apps/applications-other.svg

<svg height="24" width="24" xmlns="http://www.w3.org/2000/svg"><circle cx="12" cy="12.5" opacity=".2" r="10"/><circle cx="12" cy="12" fill="#454564" r="10"/><path d="m6 10.5a2 2 0 0 0 -2 2 2 2 0 0 0 2 2 2 2 0 0 0 2-2 2 2 0 0 0 -2-2zm6 0a2 2 0 0 0 -2 2 2 2 0 0 0 2 2 2 2 0 0 0 2-2 2 2 0 0 0 -2-2zm6 0a2 2 0 0 0 -2 2 2 2 0 0 0 2 2 2 2 0 0 0 2-2 2 2 0 0 0 -2-2z" opacity=".2"/><path d="m12 2a10 10 0 0 0 -10 10 10 10 0 0 0 .01.291 10 10 0 0 1 9.99-9.791 10 10 0 0 1 9.99 9.709 10 10 0 0 0 .01-.209 10 10 0 0 0 -10-10z" fill="#f4f4f7" opacity=".1"/><g fill="#2196f3"><circle cx="12" cy="12" r="2"/><circle cx="18" cy="12" r="2"/><circle cx="6" cy="12" r="2"/></g><path d="m6 10a2 2 0 0 0 -2 2 2 2 0 0 0 .018.253 2 2 0 0 1 1.982-1.753 2 2 0 0 1 1.982 1.747 2 2 0 0 0 .018-.247 2 2 0 0 0 -2-2zm6 0a2 2 0 0 0 -2 2 2 2 0 0 0 .018.253 2 2 0 0 1 1.982-1.753 2 2 0 0 1 1.982 1.747 2 2 0 0 0 .018-.247 2 2 0 0 0 -2-2zm6 0a2 2 0 0 0 -2 2 2 2 0 0 0 .018.253 2 2 0 0 1 1.982-1.753 2 2 0 0 1 1.982 1.747 2 2 0 0 0 .018-.247 2 2 0 0 0 -2-2z" fill="#f4f4f7" opacity=".2"/></svg>

<svg xmlns="http://www.w3.org/2000/svg" width="24" height="24"><circle style="opacity:.2" cx="12" cy="12.5" r="10"/><circle style="fill:#454564" cx="12" cy="12" r="10"/><path style="opacity:.2" d="M6 10.5a2 2 0 0 0-2 2 2 2 0 0 0 2 2 2 2 0 0 0 2-2 2 2 0 0 0-2-2zm6 0a2 2 0 0 0-2 2 2 2 0 0 0 2 2 2 2 0 0 0 2-2 2 2 0 0 0-2-2zm6 0a2 2 0 0 0-2 2 2 2 0 0 0 2 2 2 2 0 0 0 2-2 2 2 0 0 0-2-2z"/><path style="opacity:.1;fill:#f4f4f7" d="M12 2A10 10 0 0 0 2 12a10 10 0 0 0 .01.291A10 10 0 0 1 12 2.5a10 10 0 0 1 9.99 9.709A10 10 0 0 0 22 12 10 10 0 0 0 12 2z"/><circle style="fill:#2196f3" cx="12" cy="12" r="2"/><circle style="fill:#2196f3" cx="18" cy="12" r="2"/><circle style="fill:#2196f3" cx="6" cy="12" r="2"/><path style="opacity:.2;fill:#f4f4f7" d="M6 10a2 2 0 0 0-2 2 2 2 0 0 0 .018.253A2 2 0 0 1 6 10.5a2 2 0 0 1 1.982 1.747A2 2 0 0 0 8 12a2 2 0 0 0-2-2zm6 0a2 2 0 0 0-2 2 2 2 0 0 0 .018.253A2 2 0 0 1 12 10.5a2 2 0 0 1 1.982 1.747A2 2 0 0 0 14 12a2 2 0 0 0-2-2zm6 0a2 2 0 0 0-2 2 2 2 0 0 0 .018.253A2 2 0 0 1 18 10.5a2 2 0 0 1 1.982 1.747A2 2 0 0 0 20 12a2 2 0 0 0-2-2z"/></svg>
